X:5490
T:Reel du Pecheur 2
O:england
R:reel
S:Jean Carignan; Songs, Fiddle Tunes and a Folktale from Canada, Folkways
M:C|
E:7
K:Bb
BF|:DFBF dBFB|EGBG eBGB|FAcA ecAc|BdcB AcBF|\
DFBF dBFB|EGBG eBGB|FAcA ecAc|Bbfd B4:|
fe|:dfBd cecA|FAcA BcdB|FBdB ecAc|Bf=eg f2f_e|\
dfBd cecA|FAcA BcdB|FBdB ecAc|Bbfd B4:|


